X:175
T:Ale is Dear, The
O:england
M:4/4
L:1/8
R:Reel
K:Bm
"Bm"f2 ef B2 fe|"Bm"faef "A"cAec|"Bm"f2 ef B2 fe|"Bm"fa"A"ec "Bm"B2 Bc:|
|"Bm"BBBc d2 cB|"A"AAAB ABcA|"Bm"BBBc d2 cB|"Bm"fa"A"ec "Bm"B2 BA|"Bm"BB
Bc d2 cB|"A"AAAB ABcA|"Bm"d2 fd "A" c2 ec|"Bm"df"A"ec "Bm"BB B2||


